X: 255
T: Pl Karl
R: Polska
S: efter Pl Karl Persson
O: Dalarna, Evertsberg
D: Hedningarna
Z: Hkan Lidn, 2008-09-27
M: 9/8
L: 1/8
K: Bdor
B2 e2 c2 d2 d | e2 g2 fe f2 d | B2 e2 dc d2 d | e2 fg fe f2 f |
fa2 b3 b2a | (2:3:3=gf/e/ f3 f2d :: B2 b2 a2 b2 f | =g2 g2 fe f2d | 
B2 b2 a2 b2 f | =g2 g2 fe f2B | e2 d2 Bd c2A | cd2 B6 |]
